X: 317
M: 6/8
L: 1/8
K: G
V: 1
|: B/c/ |\
d>ed dBg | G>AB A2f/g/ |
{fg}a3 efg | Te2d d2g |\
(g/a/b)g a2d | (e/f/g)B ABc | {Bc}d3 dBg | TA2G G2 :|
V: 2 clef=bass middle=d
z |\
g3 b2c' | d'2b c'2b | c'3 d'2d | g3 G2 :|
|: g/a/ |\
b>c'b g2G | g3 d3 | f3 g3 | a2A d3 |
g3 f3 | e3 f3 | g3 G3 | d3 G2 :|

